icon/pk/pin.svg

<svg viewBox="0 0 48 48" fill="none" xmlns="http://www.w3.org/2000/svg" height="1em" width="1em">
  <g clip-path="url(#clip0_12637_3830)">
    <path d="M10.6963 17.5042C13.3347 14.8657 16.4701 14.9387 19.8781 16.8076L32.62 9.74509L31.8989 4.78683L43.2126 16.1005L38.2656 15.3907L31.1918 28.1214C32.9752 31.7589 33.1337 34.6647 30.4953 37.3032C30.4953 37.3032 26.235 33.0429 22.7171 29.525L6.44305 41.5564L18.4382 25.2461C14.9202 21.7281 10.6963 17.5042 10.6963 17.5042Z" fill="#2F88FF" stroke="black" stroke-width="4" stroke-linejoin="round"/>
  </g>
  <defs>
    <clipPath id="clip0_12637_3830">
      <rect width="48" height="48" fill="white"/>
    </clipPath>
  </defs>
</svg>

<svg width="48" height="48" fill="none" xmlns="http://www.w3.org/2000/svg"><g clip-path="url(#a)"><path d="M10.696 17.504c2.639-2.638 5.774-2.565 9.182-.696L32.62 9.745l-.721-4.958L43.213 16.1l-4.947-.71-7.074 12.73c1.783 3.638 1.942 6.544-.697 9.182l-7.778-7.778L6.443 41.556l11.995-16.31-7.742-7.742Z" fill="#2F88FF" stroke="#000" stroke-width="4" stroke-linejoin="round"/></g><defs><clipPath id="a"><path fill="#fff" d="M0 0h48v48H0z"/></clipPath></defs></svg>
